public/images/icons/32x32/facebook_32_white.svg

<svg height="32" viewBox="0 0 32 32" width="32" xmlns="http://www.w3.org/2000/svg"><path d="m24.5 7h-16c-.55228475 0-1 .44771525-1 1v16c0 .5522847.44771525 1 1 1h8.615v-6.96h-2.3375v-2.725h2.3375v-2c0-2.325 1.42-3.5925 3.5-3.5925.6997627-.00204502 1.3991219.03384096 2.095.1075v2.42h-1.435c-1.1275 0-1.3475.5375-1.3475 1.325v1.735h2.6975l-.35 2.725h-2.3475v6.965h4.5725c.5522847 0 1-.4477153 1-1v-16c0-.55228475-.4477153-1-1-1z" fill="#fff"/></svg>

<svg xmlns="http://www.w3.org/2000/svg" width="32" height="32" viewBox="0 0 32 32">
  <path fill="#FFF" d="M24.5,7 L8.5,7 C7.94771525,7 7.5,7.44771525 7.5,8 L7.5,24 C7.5,24.5522847 7.94771525,25 8.5,25 L17.115,25 L17.115,18.04 L14.7775,18.04 L14.7775,15.315 L17.115,15.315 L17.115,13.315 C17.115,10.99 18.535,9.7225 20.615,9.7225 C21.3147627,9.72045498 22.0141219,9.75634096 22.71,9.83 L22.71,12.25 L21.275,12.25 C20.1475,12.25 19.9275,12.7875 19.9275,13.575 L19.9275,15.31 L22.625,15.31 L22.275,18.035 L19.9275,18.035 L19.9275,25 L24.5,25 C25.0522847,25 25.5,24.5522847 25.5,24 L25.5,8 C25.5,7.44771525 25.0522847,7 24.5,7 Z"/>
</svg>
